X: 20709
T: Johnny Boyle's
R: jig
M: 6/8
K: Gmajor
g2 f efg|d2 B BAB|c2 A AGA|BAB GBd|
g2 f efg|d2 B BAB|A2 a agf|1 g3 def:|2 g2 f g2 a||
b2 g gfg|b2 g gfg|a2 f fef|a2 f dfa|
b2 g gfg|b2 g gfg|eaa agf|1 g2 f g2 a:|2 g3 def||

